X:182
T:Cowider Fair. JGi.182
T:Cawdor Fair,aka. JGi.182
T:Sing a Song of Sixpence,aka. JGi.193
M:C|
L:1/8
Q:1/4=120
S:Joshua Gibbons MS,1823,Tealby,Lincs.
R:Country Dance
O:Tealby,Lincolnshire
Z:VMP/R.Greig, 2009
K:C
cBAG AcE2|G2GEG2G2dBAG AcE2|DEFGA4:|
|:Gcccc2c2Adddd2cd|edcB dcBA|AcBdc4:|

